icons/exclamation-triangle-filled.svg

<svg width="24" height="24" viewBox="0 0 24 24" fill="none" xmlns="http://www.w3.org/2000/svg">
<path d="M12.922 2.622L21.833 19.976C22.286 20.856 21.765 22 20.911 22H3.09C2.236 22 1.715 20.856 2.168 19.976L11.079 2.622C11.505 1.792 12.497 1.792 12.923 2.622H12.922ZM12 20C12.3978 20 12.7794 19.842 13.0607 19.5607C13.342 19.2794 13.5 18.8978 13.5 18.5C13.5 18.1022 13.342 17.7206 13.0607 17.4393C12.7794 17.158 12.3978 17 12 17C11.6022 17 11.2206 17.158 10.9393 17.4393C10.658 17.7206 10.5 18.1022 10.5 18.5C10.5 18.8978 10.658 19.2794 10.9393 19.5607C11.2206 19.842 11.6022 20 12 20ZM11 14.125C11 14.708 11.334 15 12 15C12.667 15 13 14.708 13 14.125V8.875C13 8.29 12.667 8 12 8C11.334 8 11 8.291 11 8.875V14.125Z" fill="#3A3A47"/>
</svg>

<svg xmlns="http://www.w3.org/2000/svg" width="24" height="24" viewBox="0 0 24 24">
    <path fill="#3A3A47" fill-rule="evenodd" d="M12.854 2.504l.068.118 8.911 17.354c.433.841-.024 1.925-.812 2.017l-.11.007H3.09c-.817 0-1.329-1.047-.975-1.908l.053-.116 8.911-17.354c.405-.788 1.32-.827 1.776-.118zM12 17a1.5 1.5 0 1 0 0 3 1.5 1.5 0 0 0 0-3zm0-9c-.666 0-1 .291-1 .875v5.25c0 .583.334.875 1 .875.667 0 1-.292 1-.875v-5.25C13 8.29 12.667 8 12 8z"/>
</svg>
